X: 51
T:Adieu My Native Land Adieu.(bottom line). JC.049
M:C
L:1/8
Q:120
S:John Clare,Poet,Helpston. (1793-1864)
R:Air
O:England
A:Northamptonshire
N:
Z:vmp.P. Headford
K:D
A|F3d (dc)(ed)|(AG)(FE)F3F|G2B2F2A2|c/(B/A/B/ c)d{d}c3A|!
F3d (dc)(ed)|(AG)(FE)F3F|(G/A/B/A/ c/)(B/A/G/)F2(df)|B2GEF3|!
|d|c2(Bd)c3d|c2(Bd){d}c3^e|(fc)(dA) BFGz|!
AAAA AAAA|AAAA AAAz|e3d{d}c3d|E3DA3|]
